X:226
T:Wildcat Hollow
C:Joe Trimbach
N:Transcribed by Bob Douglas Tabledited by Mike Stangeland
L:1/8
Q:1/4=210
M:4/4
K:Bb
z8 |: "Gm"G,B, DB, G,B, (3D=E_G | G_G =GA BG DG | DG Bd ga bg | "D7"a_g dg A2 =gb | 
(3"Gm"aba gd gd cd | "Cm"ed cB cB AG | _G=G A_G "Gm"=GE DC |1 B,"D7"G, (3A,B,A, "Gm"G,4 :|2 B,"D7"G, (3A,B,A, "Gm"G,2 GF | 
"Cm"EC G,C EG cd | eg ed ce dc | "Gm"cd dd dd (3cdc | Bd cd BG z2 | "A7"=E_G =GA _d=B Ad | 
=ed _de g_g ed | "D"d=e _ga "Eb"b_a =gb | "A7"_d'=b (3abd' "D7"=d'2 _bd' | (3"Gm"c'd'c' bg bg _g=g | 
bg fe d2 B2 | "Cm"gf ed e2 cd | ed cB c2 EF | GF ED ED CB, | "Gm"G,B, DG Bd ga | 
"D7"bg d_g Ad ga | "Gm"g6 g_g | "F"fg fe fe d_d | cd cB cB AF | "Bb"BF DF Bc (3Bc_d | 
dB cd f2 g2 | (3"D7"ddd (3ddd (3ddd (3dd_d | d2 de dc Bd | "Gm"B2 G4 (3DFG | BG GG GG G_G | 
"F"F2 FF F2 FE | DF Ae (3cec AF | "Bb"BF D_D CG, B,C | "Gm"B,8 | "D7"(3[AA,][AA,][AA,] (3[AA,][AA,][AA,] (3[AA,][AA,][AA,] (3[B_D][BD][BD] | 
(3[cC][cC][cC] (3[cC][cC][cC] (3[BB,][BB,][BB,] (3[AA,][AA,][AA,] | "Gm"(3[BB,][BB,][BB,] (3[AA,][AA,][AA,] (3[GG,][GG,][GG,] [GG,][GG,] | 
(3[GG,][GG,][GG,] (3[GG,][GG,][GG,] [G4G,4] | 
 

